; generated by Slic3r Prusa Edition 1.41.2+win64 on 2019-01-20 at 12:29:08

; 

; external perimeters extrusion width = 0.60mm
; perimeters extrusion width = 0.43mm
; infill extrusion width = 0.45mm
; solid infill extrusion width = 0.70mm
; top infill extrusion width = 0.43mm
; first layer extrusion width = 0.42mm

M201 X9000 Y9000 Z500 E10000 ; sets maximum accelerations, mm/sec^2
M203 X500 Y500 Z12 E120 ; sets maximum feedrates, mm/sec
M204 P2000 R1500 T2000 ; sets acceleration (P, T) and retract acceleration (R), mm/sec^2
M205 X10.00 Y10.00 Z0.20 E2.50 ; sets the jerk limits, mm/sec
M205 S0 T0 ; sets the minimum extruding and travel feed rate, mm/sec
M107
M115 U3.1.0 ; tell printer latest fw version
M83  ; extruder relative mode
M204 S2000 T1500 ; MK2 firmware only supports the old M204 format
M104 S210 ; set extruder temp
M140 S55 ; set bed temp
M190 S55 ; wait for bed temp
M109 S210 ; wait for extruder temp
G28 W ; home all without mesh bed level
G80 ; mesh bed leveling
G1 Y-3.0 F1000.0 ; go outside print area
G92 E0.0
G1 X60.0 E9.0  F1000.0 ; intro line
G1 X100.0 E12.5  F1000.0 ; intro line
G92 E0.0
M900 K40; Filament gcode
G21 ; set units to millimeters
G90 ; use absolute coordinates
M83 ; use relative distances for extrusion
;BEFORE_LAYER_CHANGE
G92 E0.0
;0.2


G1 E-0.80000 F2100.00000
G1 Z0.600 F10800.000
;AFTER_LAYER_CHANGE
;0.2
G1 X135.631 Y71.595
G1 Z0.200
G1 E0.80000 F2100.00000
M204 S1000
G1 F1200
G1 X135.525 Y70.687 E0.02699
G1 X135.720 Y69.971 E0.02190
G1 X136.145 Y69.358 E0.02201
G1 X180.707 Y24.796 E1.86016
G1 X181.417 Y24.323 E0.02519
G1 X182.254 Y24.158 E0.02519
G1 X183.006 Y24.292 E0.02254
G1 X183.666 Y24.676 E0.02254
G1 X207.255 Y45.327 E0.92539
G1 X220.735 Y58.807 E0.56269
G1 X221.202 Y59.593 E0.02699
G1 X221.308 Y60.501 E0.02699
G1 X221.113 Y61.217 E0.02190
G1 X220.688 Y61.829 E0.02201
G1 X176.124 Y106.394 E1.86027
G1 X175.750 Y106.692 E0.01410
G1 X175.317 Y106.903 E0.01421
G1 X174.852 Y107.013 E0.01410
G1 X174.374 Y107.020 E0.01410
G1 X173.728 Y106.857 E0.01967
G1 X173.162 Y106.507 E0.01967
G1 X149.573 Y85.856 E0.92539
G1 X136.098 Y72.381 E0.56248
G1 X135.661 Y71.647 E0.02521
; PURGING FINISHED
G1 E-0.80000 F2100.00000
G1 Z0.800 F10800.000
G1 X138.534 Y70.894
G1 Z0.200
G1 E0.80000 F2100.00000
G1 F1200
G1 X182.252 Y27.177 E1.82490
G1 X194.786 Y39.711 E0.52321
G1 X151.068 Y83.428 E1.82490
G1 X138.577 Y70.936 E0.52144
G1 X138.001 Y70.894 F10800.000
G1 F1200
G1 X182.252 Y26.643 E1.84716
G1 X195.319 Y39.711 E0.54547
G1 X151.068 Y83.961 E1.84716
G1 X138.043 Y70.936 E0.54370
G1 X138.309 Y70.640 F10800.000
G1 X138.814 Y70.774
G1 F1200
G1 X151.069 Y83.028 E0.51297
G1 X151.336 Y82.760 E0.01119
G1 X139.202 Y70.626 E0.50794
G1 X139.469 Y70.359 E0.01119
G1 X151.603 Y82.493 E0.50794
G1 X151.871 Y82.226 E0.01119
G1 X139.737 Y70.092 E0.50794
G1 X140.004 Y69.824 E0.01119
G1 X152.138 Y81.958 E0.50794
G1 X152.406 Y81.691 E0.01119
G1 X140.271 Y69.557 E0.50794
G1 X140.539 Y69.289 E0.01119
G1 X152.673 Y81.423 E0.50794
G1 X152.940 Y81.156 E0.01119
G1 X140.806 Y69.022 E0.50794
G1 X141.074 Y68.755 E0.01119
G1 X153.208 Y80.889 E0.50794
G1 X153.475 Y80.621 E0.01119
G1 X141.341 Y68.487 E0.50794
G1 X141.608 Y68.220 E0.01119
G1 X153.742 Y80.354 E0.50794
G1 X154.010 Y80.087 E0.01119
G1 X141.876 Y67.952 E0.50794
G1 X142.143 Y67.685 E0.01119
G1 X154.277 Y79.819 E0.50794
G1 X154.545 Y79.552 E0.01119
G1 X142.410 Y67.418 E0.50794
G1 X142.678 Y67.150 E0.01119
G1 X154.812 Y79.284 E0.50794
G1 X155.079 Y79.017 E0.01119
G1 X142.945 Y66.883 E0.50794
G1 X143.213 Y66.615 E0.01119
G1 X155.347 Y78.750 E0.50794
G1 X155.614 Y78.482 E0.01119
G1 X143.480 Y66.348 E0.50794
G1 X143.747 Y66.081 E0.01119
G1 X155.882 Y78.215 E0.50794
G1 X156.149 Y77.947 E0.01119
G1 X144.015 Y65.813 E0.50794
G1 X144.282 Y65.546 E0.01119
G1 X156.416 Y77.680 E0.50794
G1 X156.684 Y77.413 E0.01119
G1 X144.550 Y65.279 E0.50794
G1 X144.817 Y65.011 E0.01119
G1 X156.951 Y77.145 E0.50794
G1 X157.219 Y76.878 E0.01119
G1 X145.084 Y64.744 E0.50794
G1 X145.352 Y64.476 E0.01119
G1 X157.486 Y76.611 E0.50794
G1 X157.753 Y76.343 E0.01119
G1 X145.619 Y64.209 E0.50794
G1 X145.887 Y63.942 E0.01119
G1 X158.021 Y76.076 E0.50794
G1 X158.288 Y75.808 E0.01119
G1 X146.154 Y63.674 E0.50794
G1 X146.421 Y63.407 E0.01119
G1 X158.555 Y75.541 E0.50794
G1 X158.823 Y75.274 E0.01119
G1 X146.689 Y63.139 E0.50794
G1 X146.956 Y62.872 E0.01119
G1 X159.090 Y75.006 E0.50794
G1 X159.358 Y74.739 E0.01119
G1 X147.223 Y62.605 E0.50794
G1 X147.491 Y62.337 E0.01119
G1 X159.625 Y74.471 E0.50794
G1 X159.892 Y74.204 E0.01119
G1 X147.758 Y62.070 E0.50794
G1 X148.026 Y61.803 E0.01119
G1 X160.160 Y73.937 E0.50794
G1 X160.427 Y73.669 E0.01119
G1 X148.293 Y61.535 E0.50794
G1 X148.560 Y61.268 E0.01119
G1 X160.695 Y73.402 E0.50794
G1 X160.962 Y73.134 E0.01119
G1 X148.828 Y61.000 E0.50794
G1 X149.095 Y60.733 E0.01119
G1 X161.229 Y72.867 E0.50794
G1 X161.497 Y72.600 E0.01119
G1 X149.363 Y60.466 E0.50794
G1 X149.630 Y60.198 E0.01119
G1 X161.764 Y72.332 E0.50794
G1 X162.031 Y72.065 E0.01119
G1 X149.897 Y59.931 E0.50794
G1 X150.165 Y59.663 E0.01119
G1 X162.299 Y71.798 E0.50794
G1 X162.566 Y71.530 E0.01119
G1 X150.432 Y59.396 E0.50794
G1 X150.699 Y59.129 E0.01119
G1 X162.834 Y71.263 E0.50794
G1 X163.101 Y70.995 E0.01119
G1 X150.967 Y58.861 E0.50794
G1 X151.234 Y58.594 E0.01119
G1 X163.368 Y70.728 E0.50794
G1 X163.636 Y70.461 E0.01119
G1 X151.502 Y58.326 E0.50794
G1 X151.769 Y58.059 E0.01119
G1 X163.903 Y70.193 E0.50794
G1 X164.171 Y69.926 E0.01119
G1 X152.036 Y57.792 E0.50794
G1 X152.304 Y57.524 E0.01119
G1 X164.438 Y69.658 E0.50794
G1 X164.705 Y69.391 E0.01119
G1 X152.571 Y57.257 E0.50794
G1 X152.839 Y56.990 E0.01119
G1 X164.973 Y69.124 E0.50794
G1 X165.240 Y68.856 E0.01119
G1 X153.106 Y56.722 E0.50794
G1 X153.373 Y56.455 E0.01119
G1 X165.508 Y68.589 E0.50794
G1 X165.775 Y68.322 E0.01119
G1 X153.641 Y56.187 E0.50794
G1 X153.908 Y55.920 E0.01119
G1 X166.042 Y68.054 E0.50794
G1 X166.310 Y67.787 E0.01119
G1 X154.176 Y55.653 E0.50794
G1 X154.443 Y55.385 E0.01119
G1 X166.577 Y67.519 E0.50794
G1 X166.844 Y67.252 E0.01119
G1 X154.710 Y55.118 E0.50794
G1 X154.978 Y54.850 E0.01119
G1 X167.112 Y66.985 E0.50794
G1 X167.379 Y66.717 E0.01119
G1 X155.245 Y54.583 E0.50794
G1 X155.512 Y54.316 E0.01119
G1 X167.647 Y66.450 E0.50794
G1 X167.914 Y66.182 E0.01119
G1 X155.780 Y54.048 E0.50794
G1 X156.047 Y53.781 E0.01119
G1 X168.181 Y65.915 E0.50794
G1 X168.449 Y65.648 E0.01119
G1 X156.315 Y53.513 E0.50794
G1 X156.582 Y53.246 E0.01119
G1 X168.716 Y65.380 E0.50794
G1 X168.984 Y65.113 E0.01119
G1 X156.849 Y52.979 E0.50794
G1 X157.117 Y52.711 E0.01119
G1 X169.251 Y64.845 E0.50794
G1 X169.518 Y64.578 E0.01119
G1 X157.384 Y52.444 E0.50794
G1 X157.652 Y52.177 E0.01119
G1 X169.786 Y64.311 E0.50794
G1 X170.053 Y64.043 E0.01119
G1 X157.919 Y51.909 E0.50794
G1 X158.186 Y51.642 E0.01119
G1 X170.320 Y63.776 E0.50794
G1 X170.588 Y63.509 E0.01119
G1 X158.454 Y51.374 E0.50794
G1 X158.721 Y51.107 E0.01119
G1 X170.855 Y63.241 E0.50794
G1 X171.123 Y62.974 E0.01119
G1 X158.989 Y50.840 E0.50794
G1 X159.256 Y50.572 E0.01119
G1 X171.390 Y62.706 E0.50794
G1 X171.657 Y62.439 E0.01119
G1 X159.523 Y50.305 E0.50794
G1 X159.791 Y50.037 E0.01119
G1 X171.925 Y62.172 E0.50794
G1 X172.192 Y61.904 E0.01119
G1 X160.058 Y49.770 E0.50794
G1 X160.325 Y49.503 E0.01119
G1 X172.460 Y61.637 E0.50794
G1 X172.727 Y61.369 E0.01119
G1 X160.593 Y49.235 E0.50794
G1 X160.860 Y48.968 E0.01119
G1 X172.994 Y61.102 E0.50794
G1 X173.262 Y60.835 E0.01119
G1 X161.128 Y48.701 E0.50794
G1 X161.395 Y48.433 E0.01119
G1 X173.529 Y60.567 E0.50794
G1 X173.797 Y60.300 E0.01119
G1 X161.662 Y48.166 E0.50794
G1 X161.930 Y47.898 E0.01119
G1 X174.064 Y60.033 E0.50794
G1 X174.331 Y59.765 E0.01119
G1 X162.197 Y47.631 E0.50794
G1 X162.465 Y47.364 E0.01119
G1 X174.599 Y59.498 E0.50794
G1 X174.866 Y59.230 E0.01119
G1 X162.732 Y47.096 E0.50794
G1 X162.999 Y46.829 E0.01119
G1 X175.133 Y58.963 E0.50794
G1 X175.401 Y58.696 E0.01119
G1 X163.267 Y46.561 E0.50794
G1 X163.534 Y46.294 E0.01119
G1 X175.668 Y58.428 E0.50794
G1 X175.936 Y58.161 E0.01119
G1 X163.801 Y46.027 E0.50794
G1 X164.069 Y45.759 E0.01119
G1 X176.203 Y57.893 E0.50794
G1 X176.470 Y57.626 E0.01119
G1 X164.336 Y45.492 E0.50794
G1 X164.604 Y45.224 E0.01119
G1 X176.738 Y57.359 E0.50794
G1 X177.005 Y57.091 E0.01119
G1 X164.871 Y44.957 E0.50794
G1 X165.138 Y44.690 E0.01119
G1 X177.273 Y56.824 E0.50794
G1 X177.540 Y56.556 E0.01119
G1 X165.406 Y44.422 E0.50794
G1 X165.673 Y44.155 E0.01119
G1 X177.807 Y56.289 E0.50794
G1 X178.075 Y56.022 E0.01119
G1 X165.941 Y43.888 E0.50794
G1 X166.208 Y43.620 E0.01119
G1 X178.342 Y55.754 E0.50794
G1 X178.610 Y55.487 E0.01119
G1 X166.475 Y43.353 E0.50794
G1 X166.743 Y43.085 E0.01119
G1 X178.877 Y55.220 E0.50794
G1 X179.144 Y54.952 E0.01119
G1 X167.010 Y42.818 E0.50794
G1 X167.278 Y42.551 E0.01119
G1 X179.412 Y54.685 E0.50794
G1 X179.679 Y54.417 E0.01119
G1 X167.545 Y42.283 E0.50794
G1 X167.812 Y42.016 E0.01119
G1 X179.946 Y54.150 E0.50794
G1 X180.214 Y53.883 E0.01119
G1 X168.080 Y41.748 E0.50794
G1 X168.347 Y41.481 E0.01119
G1 X180.481 Y53.615 E0.50794
G1 X180.749 Y53.348 E0.01119
G1 X168.614 Y41.214 E0.50794
G1 X168.882 Y40.946 E0.01119
G1 X181.016 Y53.080 E0.50794
G1 X181.283 Y52.813 E0.01119
G1 X169.149 Y40.679 E0.50794
G1 X169.417 Y40.412 E0.01119
G1 X181.551 Y52.546 E0.50794
G1 X181.818 Y52.278 E0.01119
G1 X169.684 Y40.144 E0.50794
G1 X169.951 Y39.877 E0.01119
G1 X182.086 Y52.011 E0.50794
G1 X182.353 Y51.743 E0.01119
G1 X170.219 Y39.609 E0.50794
G1 X170.486 Y39.342 E0.01119
G1 X182.620 Y51.476 E0.50794
G1 X182.888 Y51.209 E0.01119
G1 X170.754 Y39.075 E0.50794
G1 X171.021 Y38.807 E0.01119
G1 X183.155 Y50.941 E0.50794
G1 X183.422 Y50.674 E0.01119
G1 X171.288 Y38.540 E0.50794
G1 X171.556 Y38.272 E0.01119
G1 X183.690 Y50.407 E0.50794
G1 X183.957 Y50.139 E0.01119
G1 X171.823 Y38.005 E0.50794
G1 X172.090 Y37.738 E0.01119
G1 X184.225 Y49.872 E0.50794
G1 X184.492 Y49.604 E0.01119
G1 X172.358 Y37.470 E0.50794
G1 X172.625 Y37.203 E0.01119
G1 X184.759 Y49.337 E0.50794
G1 X185.027 Y49.070 E0.01119
G1 X172.893 Y36.935 E0.50794
G1 X173.160 Y36.668 E0.01119
G1 X185.294 Y48.802 E0.50794
G1 X185.562 Y48.535 E0.01119
G1 X173.427 Y36.401 E0.50794
G1 X173.695 Y36.133 E0.01119
G1 X185.829 Y48.267 E0.50794
G1 X186.096 Y48.000 E0.01119
G1 X173.962 Y35.866 E0.50794
G1 X174.230 Y35.599 E0.01119
G1 X186.364 Y47.733 E0.50794
G1 X186.631 Y47.465 E0.01119
G1 X174.497 Y35.331 E0.50794
G1 X174.764 Y35.064 E0.01119
G1 X186.899 Y47.198 E0.50794
G1 X187.166 Y46.931 E0.01119
G1 X175.032 Y34.796 E0.50794
G1 X175.299 Y34.529 E0.01119
G1 X187.433 Y46.663 E0.50794
G1 X187.701 Y46.396 E0.01119
G1 X175.567 Y34.262 E0.50794
G1 X175.834 Y33.994 E0.01119
G1 X187.968 Y46.128 E0.50794
G1 X188.235 Y45.861 E0.01119
G1 X176.101 Y33.727 E0.50794
G1 X176.369 Y33.459 E0.01119
G1 X188.503 Y45.594 E0.50794
G1 X188.770 Y45.326 E0.01119
G1 X176.636 Y33.192 E0.50794
G1 X176.903 Y32.925 E0.01119
G1 X189.038 Y45.059 E0.50794
G1 X189.305 Y44.791 E0.01119
G1 X177.171 Y32.657 E0.50794
G1 X177.438 Y32.390 E0.01119
G1 X189.572 Y44.524 E0.50794
G1 X189.840 Y44.257 E0.01119
G1 X177.706 Y32.122 E0.50794
G1 X177.973 Y31.855 E0.01119
G1 X190.107 Y43.989 E0.50794
G1 X190.375 Y43.722 E0.01119
G1 X178.240 Y31.588 E0.50794
G1 X178.508 Y31.320 E0.01119
G1 X190.642 Y43.454 E0.50794
G1 X190.909 Y43.187 E0.01119
G1 X178.775 Y31.053 E0.50794
G1 X179.043 Y30.786 E0.01119
G1 X191.177 Y42.920 E0.50794
G1 X191.444 Y42.652 E0.01119
G1 X179.310 Y30.518 E0.50794
G1 X179.577 Y30.251 E0.01119
G1 X191.711 Y42.385 E0.50794
G1 X191.979 Y42.118 E0.01119
G1 X179.845 Y29.983 E0.50794
G1 X180.112 Y29.716 E0.01119
G1 X192.246 Y41.850 E0.50794
G1 X192.514 Y41.583 E0.01119
G1 X180.380 Y29.449 E0.50794
G1 X180.647 Y29.181 E0.01119
G1 X192.781 Y41.315 E0.50794
G1 X193.048 Y41.048 E0.01119
G1 X180.914 Y28.914 E0.50794
G1 X181.182 Y28.646 E0.01119
G1 X193.316 Y40.781 E0.50794
G1 X193.583 Y40.513 E0.01119
G1 X181.449 Y28.379 E0.50794
G1 X181.716 Y28.112 E0.01119
G1 X193.851 Y40.246 E0.50794
G1 X194.118 Y39.978 E0.01119
G1 X181.984 Y27.844 E0.50794
G1 X182.251 Y27.577 E0.01119
G1 X194.505 Y39.831 E0.51297
G1 E-0.80000 F2100.00000
G1 Z0.800 F10800.000
G1 X205.765 Y47.760
G1 Z0.200
G1 E0.80000 F2100.00000
G1 F1200
G1 X218.299 Y60.294 E0.52321
G1 X174.581 Y104.011 E1.82490
G1 X162.047 Y91.477 E0.52321
G1 X205.722 Y47.802 E1.82313
G1 X205.765 Y47.227 F10800.000
G1 F1200
G1 X218.832 Y60.294 E0.54547
G1 X174.581 Y104.545 E1.84716
G1 X161.514 Y91.477 E0.54547
G1 X205.722 Y47.269 E1.84539
G1 X205.905 Y47.601 F10800.000
G1 E-0.80000 F2100.00000
G1 Z0.800 F10800.000
G1 X218.018 Y60.414
G1 Z0.200
G1 E0.80000 F2100.00000
G1 F1200
G1 X205.764 Y48.160 E0.51297
G1 X205.497 Y48.428 E0.01119
G1 X217.631 Y60.562 E0.50794
G1 X217.364 Y60.829 E0.01119
G1 X205.229 Y48.695 E0.50794
G1 X204.962 Y48.962 E0.01119
G1 X217.096 Y61.096 E0.50794
G1 X216.829 Y61.364 E0.01119
G1 X204.695 Y49.230 E0.50794
G1 X204.427 Y49.497 E0.01119
G1 X216.561 Y61.631 E0.50794
G1 X216.294 Y61.899 E0.01119
G1 X204.160 Y49.764 E0.50794
G1 X203.893 Y50.032 E0.01119
G1 X216.027 Y62.166 E0.50794
G1 X215.759 Y62.433 E0.01119
G1 X203.625 Y50.299 E0.50794
G1 X203.358 Y50.567 E0.01119
G1 X215.492 Y62.701 E0.50794
G1 X215.225 Y62.968 E0.01119
G1 X203.090 Y50.834 E0.50794
G1 X202.823 Y51.101 E0.01119
G1 X214.957 Y63.236 E0.50794
G1 X214.690 Y63.503 E0.01119
G1 X202.556 Y51.369 E0.50794
G1 X202.288 Y51.636 E0.01119
G1 X214.422 Y63.770 E0.50794
G1 X214.155 Y64.038 E0.01119
G1 X202.021 Y51.904 E0.50794
G1 X201.753 Y52.171 E0.01119
G1 X213.888 Y64.305 E0.50794
G1 X213.620 Y64.572 E0.01119
G1 X201.486 Y52.438 E0.50794
G1 X201.219 Y52.706 E0.01119
G1 X213.353 Y64.840 E0.50794
G1 X213.085 Y65.107 E0.01119
G1 X200.951 Y52.973 E0.50794
G1 X200.684 Y53.241 E0.01119
G1 X212.818 Y65.375 E0.50794
G1 X212.551 Y65.642 E0.01119
G1 X200.417 Y53.508 E0.50794
G1 X200.149 Y53.775 E0.01119
G1 X212.283 Y65.909 E0.50794
G1 X212.016 Y66.177 E0.01119
G1 X199.882 Y54.043 E0.50794
G1 X199.614 Y54.310 E0.01119
G1 X211.748 Y66.444 E0.50794
G1 X211.481 Y66.712 E0.01119
G1 X199.347 Y54.577 E0.50794
G1 X199.080 Y54.845 E0.01119
G1 X211.214 Y66.979 E0.50794
G1 X210.946 Y67.246 E0.01119
G1 X198.812 Y55.112 E0.50794
G1 X198.545 Y55.380 E0.01119
G1 X210.679 Y67.514 E0.50794
G1 X210.412 Y67.781 E0.01119
G1 X198.277 Y55.647 E0.50794
G1 X198.010 Y55.914 E0.01119
G1 X210.144 Y68.049 E0.50794
G1 X209.877 Y68.316 E0.01119
G1 X197.743 Y56.182 E0.50794
G1 X197.475 Y56.449 E0.01119
G1 X209.609 Y68.583 E0.50794
G1 X209.342 Y68.851 E0.01119
G1 X197.208 Y56.717 E0.50794
G1 X196.940 Y56.984 E0.01119
G1 X209.075 Y69.118 E0.50794
G1 X208.807 Y69.385 E0.01119
G1 X196.673 Y57.251 E0.50794
G1 X196.406 Y57.519 E0.01119
G1 X208.540 Y69.653 E0.50794
G1 X208.272 Y69.920 E0.01119
G1 X196.138 Y57.786 E0.50794
G1 X195.871 Y58.053 E0.01119
G1 X208.005 Y70.188 E0.50794
G1 X207.738 Y70.455 E0.01119
G1 X195.604 Y58.321 E0.50794
G1 X195.336 Y58.588 E0.01119
G1 X207.470 Y70.722 E0.50794
G1 X207.203 Y70.990 E0.01119
G1 X195.069 Y58.856 E0.50794
G1 X194.801 Y59.123 E0.01119
G1 X206.936 Y71.257 E0.50794
G1 X206.668 Y71.525 E0.01119
G1 X194.534 Y59.390 E0.50794
G1 X194.267 Y59.658 E0.01119
G1 X206.401 Y71.792 E0.50794
G1 X206.133 Y72.059 E0.01119
G1 X193.999 Y59.925 E0.50794
G1 X193.732 Y60.193 E0.01119
G1 X205.866 Y72.327 E0.50794
G1 X205.599 Y72.594 E0.01119
G1 X193.464 Y60.460 E0.50794
G1 X193.197 Y60.727 E0.01119
G1 X205.331 Y72.861 E0.50794
G1 X205.064 Y73.129 E0.01119
G1 X192.930 Y60.995 E0.50794
G1 X192.662 Y61.262 E0.01119
G1 X204.796 Y73.396 E0.50794
G1 X204.529 Y73.664 E0.01119
G1 X192.395 Y61.530 E0.50794
G1 X192.128 Y61.797 E0.01119
G1 X204.262 Y73.931 E0.50794
G1 X203.994 Y74.198 E0.01119
G1 X191.860 Y62.064 E0.50794
G1 X191.593 Y62.332 E0.01119
G1 X203.727 Y74.466 E0.50794
G1 X203.459 Y74.733 E0.01119
G1 X191.325 Y62.599 E0.50794
G1 X191.058 Y62.866 E0.01119
G1 X203.192 Y75.001 E0.50794
G1 X202.925 Y75.268 E0.01119
G1 X190.791 Y63.134 E0.50794
G1 X190.523 Y63.401 E0.01119
G1 X202.657 Y75.535 E0.50794
G1 X202.390 Y75.803 E0.01119
G1 X190.256 Y63.669 E0.50794
G1 X189.988 Y63.936 E0.01119
G1 X202.123 Y76.070 E0.50794
